src/Pure/16/symbolic/actions/format-text-clear-formatting-symbolic.svg

<?xml version="1.0" encoding="UTF-8" standalone="no"?>
<svg
   height="16"
   width="16"
   version="1.1"
   id="svg2"
   sodipodi:docname="format-text-clear-formatting-symbolic.svg"
   inkscape:version="1.4.2 (ebf0e940d0, 2025-05-08)"
   xmlns:inkscape="http://www.inkscape.org/namespaces/inkscape"
   xmlns:sodipodi="http://sodipodi.sourceforge.net/DTD/sodipodi-0.dtd"
   xmlns="http://www.w3.org/2000/svg"
   xmlns:svg="http://www.w3.org/2000/svg">
  <defs
     id="defs2">
     <style
        id="current-color-scheme"
        type="text/css">
        .ColorScheme-Text { color:#363636; }
     </style>
  </defs>
  <sodipodi:namedview
     id="namedview2"
     pagecolor="#ffffff"
     bordercolor="#000000"
     borderopacity="0.25"
     inkscape:showpageshadow="2"
     inkscape:pageopacity="0.0"
     inkscape:pagecheckerboard="0"
     inkscape:deskcolor="#d1d1d1"
     inkscape:zoom="49.6875"
     inkscape:cx="8"
     inkscape:cy="8"
     inkscape:window-width="1920"
     inkscape:window-height="1010"
     inkscape:window-x="0"
     inkscape:window-y="0"
     inkscape:window-maximized="1"
     inkscape:current-layer="svg2" />
  <path
     id="path1"
     style="fill:currentColor"
     class="ColorScheme-Text"
     d="M 5 2 L 5 3 L 6 3 L 4 12 L 3 12 L 3 13 L 6 13 L 6 12 L 5.0898438 12 L 6 8 L 9 8 L 9 9 L 10 9 L 10 6 L 9 6 L 9 7 L 6.2207031 7 L 7.2207031 3 L 12.001953 3 L 12.001953 4 L 13.001953 4 L 13.001953 2 L 5 2 z M 9 10 L 9 11 C 9 11.277 9.1119688 11.526031 9.2929688 11.707031 L 10.085938 12.5 L 9.2929688 13.292969 A 0.996 0.996 0 0 0 9 14 L 9 15 L 10 15 A 0.996 0.996 0 0 0 10.707031 14.707031 L 11.5 13.914062 L 12.292969 14.707031 C 12.472969 14.887031 12.723 15 13 15 L 14 15 L 14 14 A 0.996 0.996 0 0 0 13.707031 13.292969 L 12.914062 12.5 L 13.707031 11.707031 A 0.993 0.993 0 0 0 14 11 L 14 10 L 13 10 A 0.996 0.996 0 0 0 12.292969 10.292969 L 11.5 11.085938 L 10.707031 10.292969 A 0.996 0.996 0 0 0 10 10 L 9 10 z " />
</svg>

<svg height="16" width="16" xmlns="http://www.w3.org/2000/svg"><g fill="#363636"><path d="M5 2v1h1l-2 9H3v1h3v-1h-.911L6 8h3v1h1V6H9v1H6.221l1-4h4.78v1h1V2z"/><path color="#363636" d="M9 10v1c0 .277.112.526.293.707l.793.793-.793.793A.996.996 0 0 0 9 14v1h1a.996.996 0 0 0 .707-.293l.793-.793.793.793c.18.18.43.293.707.293h1v-1a.996.996 0 0 0-.293-.707l-.793-.793.793-.793A.993.993 0 0 0 14 11v-1h-1a.996.996 0 0 0-.707.293l-.793.793-.793-.793A.996.996 0 0 0 10 10z" fill-rule="evenodd" font-family="sans-serif" font-weight="400" overflow="visible" style="line-height:normal;text-indent:0;text-align:start;text-decoration-line:none;text-decoration-style:solid;text-decoration-color:#363636;text-transform:none;isolation:auto;mix-blend-mode:normal"/></g></svg>
